X: 25
T:Marmalade Polka
M:4/4
L:1/8
C:john Kirkpatrick
S:F:http://members.aol.com/LewesArmsFolk/Vol6.abc
N:original key C. Border Morris ESMM 200
D:Umps and Dump
K:G
|:D2|G2G2GABc|dd d2d2ed|cc c2c2dc|BB B2B3A|
G2G2GABc|dd d2d2ed|c2AA A2F2|A2G2G2:|
|:d2|e2d2B2G2|G2F2F4|e2d2c2A2|A2G2G2Bd|
g2g2g2ag|f2e2e3e|d2Bd cAFG|A2G2G2:|
